img/icons/tel-white.svg

<svg width="16" height="16" viewBox="0 0 16 16" fill="none" xmlns="http://www.w3.org/2000/svg">
<path fill-rule="evenodd" clip-rule="evenodd" d="M15.7071 14.0737C15.6009 14.1796 15.4727 14.315 15.3369 14.4582C14.9979 14.818 14.5744 15.2653 14.309 15.4467C12.9125 16.401 11.0442 15.9444 9.72269 15.3937C7.97937 14.6673 6.08136 13.3283 4.37716 11.6238C2.67136 9.91918 1.33261 8.02047 0.606236 6.27805C0.0562613 4.95617 -0.401311 3.0874 0.553114 1.69051C0.734355 1.42489 1.18262 1.00204 1.54191 0.66238C1.68566 0.526942 1.82002 0.398972 1.92627 0.293065C2.11489 0.105368 2.37016 0 2.63625 0C2.90234 0 3.15761 0.105368 3.34624 0.293065L5.91574 2.86196C6.10333 3.05059 6.20862 3.3058 6.20862 3.57183C6.20862 3.83785 6.10333 4.09307 5.91574 4.28169L5.21578 4.98029C4.98201 5.21236 4.82942 5.51371 4.78073 5.8395C4.73203 6.16528 4.78982 6.49808 4.94551 6.78837C5.90827 8.60559 7.39459 10.0917 9.21187 11.0542C9.50208 11.2099 9.8348 11.2676 10.1605 11.2188C10.4861 11.17 10.7874 11.0174 11.0192 10.7835L11.7175 10.0849C11.9061 9.8972 12.1614 9.79183 12.4275 9.79183C12.6936 9.79183 12.9488 9.8972 13.1374 10.0849L15.7071 12.6542C15.8947 12.8428 16 13.098 16 13.3639C16 13.6299 15.8947 13.8851 15.7071 14.0737Z" fill="white"/>
</svg>

<svg width="16" height="16" fill="none" xmlns="http://www.w3.org/2000/svg"><path fill-rule="evenodd" clip-rule="evenodd" d="M15.707 14.074c-.106.106-.234.241-.37.384-.34.36-.763.807-1.028.989-1.396.954-3.265.497-4.586-.053-1.744-.727-3.642-2.066-5.346-3.77C2.671 9.919 1.333 8.02.607 6.278.056 4.956-.402 3.088.552 1.691c.181-.266.63-.689.989-1.029.144-.135.278-.263.384-.369a1.007 1.007 0 0 1 1.42 0l2.57 2.569a1.007 1.007 0 0 1 0 1.42l-.7.698a1.53 1.53 0 0 0-.27 1.808 10.265 10.265 0 0 0 4.266 4.266 1.528 1.528 0 0 0 1.807-.27l.698-.7a1.007 1.007 0 0 1 1.42 0l2.57 2.57a1.006 1.006 0 0 1 0 1.42Z" fill="#fff"/></svg>
